TileServer und Tiles/svg/9/103_9.svg

<?xml version='1.0' encoding='UTF-8' standalone='no'?>
<svg xmlns="http://www.w3.org/2000/svg" width="497pt" viewBox="0 0 497 279" xmlns:xlink="http://www.w3.org/1999/xlink" height="279pt">
 <defs style="stroke:none;" overflow="visible">
  <path id="glyph0-5" d="M 4.34375 -1.484375 C 4.34375 -0.960938 4.148438 -0.566406 3.765625 -0.296875 C 3.378906 -0.0351562 2.859375 0.09375 2.203125 0.09375 C 1.828125 0.09375 1.503906 0.0625 1.234375 0 C 0.960938 -0.0507812 0.722656 -0.128906 0.515625 -0.234375 L 0.515625 -1.046875 C 0.734375 -0.929688 0.992188 -0.828125 1.296875 -0.734375 C 1.597656 -0.648438 1.90625 -0.609375 2.21875 -0.609375 C 2.664062 -0.609375 2.988281 -0.679688 3.1875 -0.828125 C 3.382812 -0.972656 3.484375 -1.164062 3.484375 -1.40625 C 3.484375 -1.53125 3.445312 -1.644531 3.375 -1.75 C 3.300781 -1.863281 3.171875 -1.972656 2.984375 -2.078125 C 2.796875 -2.179688 2.523438 -2.300781 2.171875 -2.4375 C 1.828125 -2.570312 1.53125 -2.707031 1.28125 -2.84375 C 1.03125 -2.976562 0.835938 -3.132812 0.703125 -3.3125 C 0.578125 -3.5 0.515625 -3.742188 0.515625 -4.046875 C 0.515625 -4.492188 0.695312 -4.835938 1.0625 -5.078125 C 1.4375 -5.328125 1.921875 -5.453125 2.515625 -5.453125 C 2.847656 -5.453125 3.15625 -5.421875 3.4375 -5.359375 C 3.71875 -5.296875 3.984375 -5.207031 4.234375 -5.09375 L 3.9375 -4.40625 C 3.707031 -4.5 3.46875 -4.578125 3.21875 -4.640625 C 2.96875 -4.703125 2.710938 -4.734375 2.453125 -4.734375 C 2.097656 -4.734375 1.820312 -4.675781 1.625 -4.5625 C 1.4375 -4.445312 1.34375 -4.289062 1.34375 -4.09375 C 1.34375 -3.945312 1.382812 -3.820312 1.46875 -3.71875 C 1.5625 -3.613281 1.707031 -3.507812 1.90625 -3.40625 C 2.113281 -3.3125 2.390625 -3.195312 2.734375 -3.0625 C 3.066406 -2.9375 3.351562 -2.804688 3.59375 -2.671875 C 3.832031 -2.546875 4.015625 -2.382812 4.140625 -2.1875 C 4.273438 -2 4.34375 -1.765625 4.34375 -1.484375 Z M 4.34375 -1.484375 "/>
  <path id="glyph0-4" d="M 3.4375 -5.453125 C 4.070312 -5.453125 4.550781 -5.296875 4.875 -4.984375 C 5.207031 -4.679688 5.375 -4.179688 5.375 -3.484375 L 5.375 0 L 4.5 0 L 4.5 -3.4375 C 4.5 -4.289062 4.097656 -4.71875 3.296875 -4.71875 C 2.703125 -4.71875 2.289062 -4.550781 2.0625 -4.21875 C 1.84375 -3.882812 1.734375 -3.40625 1.734375 -2.78125 L 1.734375 0 L 0.84375 0 L 0.84375 -5.359375 L 1.5625 -5.359375 L 1.6875 -4.625 L 1.734375 -4.625 C 1.910156 -4.90625 2.148438 -5.113281 2.453125 -5.25 C 2.765625 -5.382812 3.09375 -5.453125 3.4375 -5.453125 Z M 3.4375 -5.453125 "/>
  <path id="glyph0-3" d="M 6.734375 -5.453125 C 7.335938 -5.453125 7.789062 -5.296875 8.09375 -4.984375 C 8.394531 -4.679688 8.546875 -4.179688 8.546875 -3.484375 L 8.546875 0 L 7.671875 0 L 7.671875 -3.453125 C 7.671875 -4.296875 7.304688 -4.71875 6.578125 -4.71875 C 6.054688 -4.71875 5.679688 -4.566406 5.453125 -4.265625 C 5.234375 -3.960938 5.125 -3.523438 5.125 -2.953125 L 5.125 0 L 4.265625 0 L 4.265625 -3.453125 C 4.265625 -4.296875 3.894531 -4.71875 3.15625 -4.71875 C 2.613281 -4.71875 2.238281 -4.550781 2.03125 -4.21875 C 1.832031 -3.882812 1.734375 -3.40625 1.734375 -2.78125 L 1.734375 0 L 0.84375 0 L 0.84375 -5.359375 L 1.5625 -5.359375 L 1.6875 -4.625 L 1.734375 -4.625 C 1.898438 -4.90625 2.125 -5.113281 2.40625 -5.25 C 2.695312 -5.382812 3 -5.453125 3.3125 -5.453125 C 4.15625 -5.453125 4.703125 -5.15625 4.953125 -4.5625 L 5.015625 -4.5625 C 5.191406 -4.863281 5.429688 -5.085938 5.734375 -5.234375 C 6.046875 -5.378906 6.378906 -5.453125 6.734375 -5.453125 Z M 6.734375 -5.453125 "/>
  <path id="glyph0-2" d="M 1.296875 -7.375 C 1.429688 -7.375 1.550781 -7.328125 1.65625 -7.234375 C 1.757812 -7.140625 1.8125 -7 1.8125 -6.8125 C 1.8125 -6.625 1.757812 -6.484375 1.65625 -6.390625 C 1.550781 -6.296875 1.429688 -6.25 1.296875 -6.25 C 1.148438 -6.25 1.023438 -6.296875 0.921875 -6.390625 C 0.828125 -6.484375 0.78125 -6.625 0.78125 -6.8125 C 0.78125 -7 0.828125 -7.140625 0.921875 -7.234375 C 1.023438 -7.328125 1.148438 -7.375 1.296875 -7.375 Z M 1.734375 -5.359375 L 1.734375 0 L 0.84375 0 L 0.84375 -5.359375 Z M 1.734375 -5.359375 "/>
  <path id="glyph0-1" d="M 3.234375 0 L 2.328125 0 L 2.328125 -6.34375 L 0.09375 -6.34375 L 0.09375 -7.140625 L 5.453125 -7.140625 L 5.453125 -6.34375 L 3.234375 -6.34375 Z M 3.234375 0 "/>
  <path id="glyph0-0" d="M 0.9375 0 L 0.9375 -7.140625 L 5.046875 -7.140625 L 5.046875 0 Z M 1.453125 -0.515625 L 4.546875 -0.515625 L 4.546875 -6.625 L 1.453125 -6.625 Z M 1.453125 -0.515625 "/>
 </defs>
 <image width="497" xlink:href="svg/9/103_9.jpg" height="279"/>
 <g>
  <path d="M 372.425781 137.296875 L 371.519531 137.296875 L 371.519531 130.953125 L 369.285156 130.953125 L 369.285156 130.15625 L 374.644531 130.15625 L 374.644531 130.953125 L 372.425781 130.953125 Z M 372.425781 137.296875 " transform=" rotate(  340 389.772 134.299) " style="fill:none;stroke-width:3;stroke-linecap:butt;stroke-linejoin:round;stroke:rgb(100%,100%,100%);stroke-opacity:0.6;stroke-miterlimit:10;"/>
  <path d="M 376.050781 129.921875 C 376.183594 129.921875 376.304688 129.96875 376.410156 130.0625 C 376.511719 130.15625 376.566406 130.296875 376.566406 130.484375 C 376.566406 130.671875 376.511719 130.8125 376.410156 130.90625 C 376.304688 131 376.183594 131.046875 376.050781 131.046875 C 375.902344 131.046875 375.777344 131 375.675781 130.90625 C 375.582031 130.8125 375.535156 130.671875 375.535156 130.484375 C 375.535156 130.296875 375.582031 130.15625 375.675781 130.0625 C 375.777344 129.96875 375.902344 129.921875 376.050781 129.921875 Z M 376.488281 131.9375 L 376.488281 137.296875 L 375.597656 137.296875 L 375.597656 131.9375 Z M 376.488281 131.9375 " transform=" rotate(  340 389.772 134.299) " style="fill:none;stroke-width:3;stroke-linecap:butt;stroke-linejoin:round;stroke:rgb(100%,100%,100%);stroke-opacity:0.6;stroke-miterlimit:10;"/>
  <path d="M 384.066406 131.84375 C 384.667969 131.84375 385.121094 132 385.425781 132.3125 C 385.726562 132.617188 385.878906 133.117188 385.878906 133.8125 L 385.878906 137.296875 L 385.003906 137.296875 L 385.003906 133.84375 C 385.003906 133 384.636719 132.578125 383.910156 132.578125 C 383.386719 132.578125 383.011719 132.730469 382.785156 133.03125 C 382.566406 133.335938 382.457031 133.773438 382.457031 134.34375 L 382.457031 137.296875 L 381.597656 137.296875 L 381.597656 133.84375 C 381.597656 133 381.226562 132.578125 380.488281 132.578125 C 379.945312 132.578125 379.570312 132.746094 379.363281 133.078125 C 379.164062 133.414062 379.066406 133.890625 379.066406 134.515625 L 379.066406 137.296875 L 378.175781 137.296875 L 378.175781 131.9375 L 378.894531 131.9375 L 379.019531 132.671875 L 379.066406 132.671875 C 379.230469 132.390625 379.457031 132.183594 379.738281 132.046875 C 380.027344 131.914062 380.332031 131.84375 380.644531 131.84375 C 381.488281 131.84375 382.035156 132.140625 382.285156 132.734375 L 382.347656 132.734375 C 382.523438 132.433594 382.761719 132.210938 383.066406 132.0625 C 383.378906 131.917969 383.710938 131.84375 384.066406 131.84375 Z M 384.066406 131.84375 " transform=" rotate(  340 389.772 134.299) " style="fill:none;stroke-width:3;stroke-linecap:butt;stroke-linejoin:round;stroke:rgb(100%,100%,100%);stroke-opacity:0.6;stroke-miterlimit:10;"/>
  <path d="M 393.417969 131.84375 C 394.019531 131.84375 394.472656 132 394.777344 132.3125 C 395.078125 132.617188 395.230469 133.117188 395.230469 133.8125 L 395.230469 137.296875 L 394.355469 137.296875 L 394.355469 133.84375 C 394.355469 133 393.988281 132.578125 393.261719 132.578125 C 392.738281 132.578125 392.363281 132.730469 392.136719 133.03125 C 391.917969 133.335938 391.808594 133.773438 391.808594 134.34375 L 391.808594 137.296875 L 390.949219 137.296875 L 390.949219 133.84375 C 390.949219 133 390.578125 132.578125 389.839844 132.578125 C 389.296875 132.578125 388.921875 132.746094 388.714844 133.078125 C 388.515625 133.414062 388.417969 133.890625 388.417969 134.515625 L 388.417969 137.296875 L 387.527344 137.296875 L 387.527344 131.9375 L 388.246094 131.9375 L 388.371094 132.671875 L 388.417969 132.671875 C 388.582031 132.390625 388.808594 132.183594 389.089844 132.046875 C 389.378906 131.914062 389.683594 131.84375 389.996094 131.84375 C 390.839844 131.84375 391.386719 132.140625 391.636719 132.734375 L 391.699219 132.734375 C 391.875 132.433594 392.113281 132.210938 392.417969 132.0625 C 392.730469 131.917969 393.0625 131.84375 393.417969 131.84375 Z M 393.417969 131.84375 " transform=" rotate(  340 389.772 134.299) " style="fill:none;stroke-width:3;stroke-linecap:butt;stroke-linejoin:round;stroke:rgb(100%,100%,100%);stroke-opacity:0.6;stroke-miterlimit:10;"/>
  <path d="M 397.328125 129.921875 C 397.460938 129.921875 397.582031 129.96875 397.6875 130.0625 C 397.789062 130.15625 397.84375 130.296875 397.84375 130.484375 C 397.84375 130.671875 397.789062 130.8125 397.6875 130.90625 C 397.582031 131 397.460938 131.046875 397.328125 131.046875 C 397.179688 131.046875 397.054688 131 396.953125 130.90625 C 396.859375 130.8125 396.8125 130.671875 396.8125 130.484375 C 396.8125 130.296875 396.859375 130.15625 396.953125 130.0625 C 397.054688 129.96875 397.179688 129.921875 397.328125 129.921875 Z M 397.765625 131.9375 L 397.765625 137.296875 L 396.875 137.296875 L 396.875 131.9375 Z M 397.765625 131.9375 " transform=" rotate(  340 389.772 134.299) " style="fill:none;stroke-width:3;stroke-linecap:butt;stroke-linejoin:round;stroke:rgb(100%,100%,100%);stroke-opacity:0.6;stroke-miterlimit:10;"/>
  <path d="M 402.050781 131.84375 C 402.683594 131.84375 403.164062 132 403.488281 132.3125 C 403.820312 132.617188 403.988281 133.117188 403.988281 133.8125 L 403.988281 137.296875 L 403.113281 137.296875 L 403.113281 133.859375 C 403.113281 133.007812 402.710938 132.578125 401.910156 132.578125 C 401.316406 132.578125 400.902344 132.746094 400.675781 133.078125 C 400.457031 133.414062 400.347656 133.890625 400.347656 134.515625 L 400.347656 137.296875 L 399.457031 137.296875 L 399.457031 131.9375 L 400.175781 131.9375 L 400.300781 132.671875 L 400.347656 132.671875 C 400.523438 132.390625 400.761719 132.183594 401.066406 132.046875 C 401.378906 131.914062 401.707031 131.84375 402.050781 131.84375 Z M 402.050781 131.84375 " transform=" rotate(  340 389.772 134.299) " style="fill:none;stroke-width:3;stroke-linecap:butt;stroke-linejoin:round;stroke:rgb(100%,100%,100%);stroke-opacity:0.6;stroke-miterlimit:10;"/>
  <path d="M 409.136719 135.8125 C 409.136719 136.335938 408.941406 136.730469 408.558594 137 C 408.171875 137.261719 407.652344 137.390625 406.996094 137.390625 C 406.621094 137.390625 406.296875 137.359375 406.027344 137.296875 C 405.753906 137.246094 405.515625 137.167969 405.308594 137.0625 L 405.308594 136.25 C 405.527344 136.367188 405.785156 136.46875 406.089844 136.5625 C 406.390625 136.648438 406.699219 136.6875 407.011719 136.6875 C 407.457031 136.6875 407.78125 136.617188 407.980469 136.46875 C 408.175781 136.324219 408.277344 136.132812 408.277344 135.890625 C 408.277344 135.765625 408.238281 135.652344 408.167969 135.546875 C 408.09375 135.433594 407.964844 135.324219 407.777344 135.21875 C 407.589844 135.117188 407.316406 134.996094 406.964844 134.859375 C 406.621094 134.726562 406.324219 134.589844 406.074219 134.453125 C 405.824219 134.320312 405.628906 134.164062 405.496094 133.984375 C 405.371094 133.796875 405.308594 133.554688 405.308594 133.25 C 405.308594 132.804688 405.488281 132.460938 405.855469 132.21875 C 406.230469 131.96875 406.714844 131.84375 407.308594 131.84375 C 407.640625 131.84375 407.949219 131.875 408.230469 131.9375 C 408.511719 132 408.777344 132.089844 409.027344 132.203125 L 408.730469 132.890625 C 408.5 132.796875 408.261719 132.71875 408.011719 132.65625 C 407.761719 132.59375 407.503906 132.5625 407.246094 132.5625 C 406.890625 132.5625 406.613281 132.621094 406.417969 132.734375 C 406.230469 132.851562 406.136719 133.007812 406.136719 133.203125 C 406.136719 133.351562 406.175781 133.476562 406.261719 133.578125 C 406.355469 133.683594 406.5 133.789062 406.699219 133.890625 C 406.90625 133.984375 407.183594 134.101562 407.527344 134.234375 C 407.859375 134.359375 408.144531 134.492188 408.386719 134.625 C 408.625 134.75 408.808594 134.914062 408.933594 135.109375 C 409.066406 135.296875 409.136719 135.53125 409.136719 135.8125 Z M 409.136719 135.8125 " transform=" rotate(  340 389.772 134.299) " style="fill:none;stroke-width:3;stroke-linecap:butt;stroke-linejoin:round;stroke:rgb(100%,100%,100%);stroke-opacity:0.6;stroke-miterlimit:10;"/>
  <g transform=" rotate(  340 389.772 134.299) " style="fill:rgb(13.333333%,13.333333%,13.333333%);fill-opacity:1;">
   <use xlink:href="#glyph0-1" y="137.298799" x="369.191962"/>
   <use xlink:href="#glyph0-2" y="137.298799" x="374.751962"/>
   <use xlink:href="#glyph0-3" y="137.298799" x="377.331962"/>
   <use xlink:href="#glyph0-3" y="137.298799" x="386.681962"/>
   <use xlink:href="#glyph0-2" y="137.298799" x="396.031962"/>
   <use xlink:href="#glyph0-4" y="137.298799" x="398.611962"/>
   <use xlink:href="#glyph0-5" y="137.298799" x="404.791962"/>
  </g>
 </g>
</svg>

<svg xmlns="http://www.w3.org/2000/svg" xmlns:xlink="http://www.w3.org/1999/xlink" viewBox="0 0 497 279"> <defs overflow="visible" style="stroke:none">  <path id="e" d="M4.3-1.5c0 .5-.2 1-.5 1.2-.4.3-1 .4-1.6.4l-1-.1-.7-.2V-1l.8.3h1.8l.4-.7-.1-.4L3-2a7.5 7.5 0 0 0-.8-.4 7.5 7.5 0 0 1-1-.4l-.4-.5L.5-4c0-.5.2-.8.6-1 .3-.4.8-.6 1.4-.6l1 .2a4 4 0 0 1 .6.4l-.1.6-.8-.2-.7-.1-.9.1c-.2.2-.3.3-.3.6s0 .2.2.3l.4.3.8.3.9.4.4.5c.3.2.3.4.3.7Zm0 0"/>  <path id="d" d="M3.4-5.5c.7 0 1.2.2 1.6.5.2.3.4.8.4 1.5V0h-.9v-3.4c0-.9-.4-1.3-1.2-1.3-.6 0-1 .1-1.2.5-.3.2-.4.8-.4 1.4V0H.8v-5.4h.8v.8h.2c.2-.4.3-.5.7-.7l1-.2Zm0 0"/>  <path id="c" d="M6.7-5.5c.6 0 1 .2 1.4.5.3.3.4.8.4 1.5V0h-.8v-3.5c0-.8-.4-1.2-1.1-1.2-.6 0-1 .1-1.1.4C5.2-4 5-3.5 5-3v3h-.7v-3.5c0-.8-.4-1.2-1.1-1.2-.6 0-1 .1-1.2.5-.2.2-.3.8-.3 1.4V0H.8v-5.4h.8v.8h.2l.6-.7 1-.2c.7 0 1.2.3 1.6 1 .2-.5.4-.7.7-.8.3-.1.7-.2 1-.2Zm0 0"/>  <path id="b" d="M1.3-7.4c.1 0 .3 0 .4.2l.1.4-.1.4-.4.2-.4-.3-.1-.3.1-.4.4-.2Zm.4 2V0H.8v-5.4Zm0 0"/>  <path id="a" d="M3.2 0h-.9v-6.3H.1v-.8h5.4v.8H3.2Zm0 0"/>  <path d="M1 0v-7.1h4V0Zm.4-.5h3.1v-6.1h-3Zm.1 0"/> </defs> <image xlink:href="svg/9/103_9.jpg" width="497" height="279"/> <path d="M372.4 137.3h-.9V131h-2.2v-.8h5.3v.8h-2.2Zm3.6-7.3h.5l.1.6c0 .1 0 .2-.2.3l-.3.1h-.4l-.2-.6c0-.1 0-.2.2-.4l.3-.1Zm.6 2v5.2h-1v-5.3Zm7.4-.2c.8 0 1.2.2 1.5.5.2.3.5.8.5 1.5v3.5h-1v-3.5c0-.8-.4-1.2-1-1.2s-1 .1-1.3.4c-.1.3-.2.8-.2 1.3v3h-.9v-3.5c0-.8-.4-1.2-1.1-1.2-.6 0-1 .1-1.1.4-.2.4-.4.9-.4 1.5v2.8h-1v-5.4h1v.8l.8-.7.9-.2c.7 0 1.3.3 1.5 1 .3-.5.6-.7.9-.8.3-.1.6-.2.9-.2Zm9.4 0c.6 0 1 .2 1.4.5.2.3.4.8.4 1.5v3.5h-.8v-3.5c0-.8-.4-1.2-1.1-1.2-.6 0-1 .1-1.3.4 0 .3-.2.8-.2 1.3v3h-.8v-3.5c0-.8-.4-1.2-1-1.2-.8 0-1.2.1-1.4.4-.1.4-.2.9-.2 1.5v2.8h-.9v-5.4h.7l.2.8.7-.7.9-.2c.8 0 1.4.3 1.6 1h.1c.2-.5.4-.7.7-.8.3-.1.7-.2 1-.2Zm3.9-1.8h.4l.1.6-.1.3-.4.1h-.3l-.2-.6c0-.1 0-.2.2-.4l.3-.1Zm.5 2v5.2h-1v-5.3Zm4.2-.2c.8 0 1.3.2 1.6.5.2.3.4.8.4 1.5v3.5h-1v-3.4c.1-.9-.3-1.3-1-1.3s-1 .1-1.3.4c-.2.4-.4.9-.4 1.5v2.8h-.8v-5.4h.7l.1.8.8-.7.9-.2Zm7.1 4c0 .5-.1 1-.5 1.2-.4.3-1 .4-1.6.4l-1-.1-.7-.2v-.8l.8.3h1.9l.3-.7-.1-.4-.4-.3a7.5 7.5 0 0 0-.8-.2 7.5 7.5 0 0 1-1-.5l-.4-.5-.3-.8c0-.4.2-.6.7-.9.2-.3.7-.5 1.3-.5l1 .2a4 4 0 0 1 .7.2l-.3.7-.7-.2-.8-.1-.8.1c-.2.3-.3.3-.3.5s0 .3.2.4l.4.3.8.3.9.4.5.5c.2.2.2.4.2.7Zm0 0" style="fill:none;stroke-width:3;stroke-linecap:butt;stroke-linejoin:round;stroke:#fff;stroke-opacity:.6;stroke-miterlimit:10" transform=" rotate(  340 389.772 134.299) "/> <g style="fill:#222;fill-opacity:1" transform=" rotate(  340 389.772 134.299) ">  <use xlink:href="#a" x="369.2" y="137.3"/>  <use xlink:href="#b" x="374.8" y="137.3"/>  <use xlink:href="#c" x="377.3" y="137.3"/>  <use xlink:href="#c" x="386.7" y="137.3"/>  <use xlink:href="#b" x="396" y="137.3"/>  <use xlink:href="#d" x="398.6" y="137.3"/>  <use xlink:href="#e" x="404.8" y="137.3"/> </g></svg>
